X: 0
T: Monymusk
T: 32S 3C x 8 -- RSCDS 11-2
C: Daniel Dow (1775)
C: from Elke Baker
R: strathspey
K: A
P: Sir Archibald Grant of Monymusk's Reel
M: 4/4
L: 1/8
|:f|"A"e<Ac>A e>A"D"d>f|"A"e<Ac>A "G"B2 d>f|"A"e<Ac>A c/d/e e>a|"D"f>d"E"B>e "A"c<A A:|
g|"A"a2 e>a c>ae>g|"A"a>e"D"d>a "A"c>a"E"B>g|"A"a>e"D"f>a "A"e>ac>a|"D"f>d"E"B>e "A"c<AA>g|
"A"a>ee>a c>ae>g|"A"a>e"Bm"d>a "A"c>a"E"B>g|"A"a>e"D"f>a "A"e>a"D"d>a|"A"c>a"E"B>d "A"c<A A||
|: a|"A"A/A/A c<A (3ceA d<f|"A"A/A/A c<a "G"B/B/B d<f|"A"A/A/A c<A c/d/e e<a|"G"=g>d B/c/d "A"c<A A:|
e|"A"a>e!beambr1!c<a e<ac>e|"A"a>e"D"d<a "A"c<a"E"B>e|"A"a>e!beambr1!c<a e<ac<a|"D"f/g/a "E"B/c/d "A"c<AA>e|
"A"a>e!beambr1!c<a e<ac>e|"A"a/g/f e<a c<a"E"B>e|"A"a>e"D"f<a "A"e<a"D"d<a|"A"c<a"E"B<a "A"c<A A |]
